X:0299
M:6/8
L:1/8
Q:3/8=120
K:D
d2a faf|e2f gfe|d2g faf|d2g faf |
gbg faf|e2f gfe|dcB AFA|D2F AFD:|

